X:1
T:Orientis Partibus 2, 77.77
T:Orientis Partibus 2, 77.77
T:Medieval French melody
T:Public Domain Courtesy of the Cyber Hymnal™
C:Medieval French melody
Z:Public Domain
Z:Courtesy of the Cyber Hymnal™
%%score ( 1 2 ) ( 3 4 )
L:1/8
Q:1/4=130
M:6/4
K:F
V:1 treble 
V:2 treble 
V:3 bass 
V:4 bass 
V:1
 [CF]2 [CF]2 [CG]2 [CA]4 [CF]2 | G4 [CE]2 [CF]4 [Fc]2 | [Fc]2 F2 [Fc]2 [Fd]4 [FA][FA] | %3
 [Fc]4 [Ec]2 [FA]4 [FA][FA] | [FA]4 [CG]2 [FB]4 [FA]2 | G2 F2 [DG]2 [EA]6 | %6
 [Fc]2 [Fc]2 [FB]2 A4 [DF]2 | G4 [CE]2 [CF]6 |] %8
V:2
 x12 | D2 D2 x8 | x12 | x12 | x12 | D4 x8 | x6 E2 D2 x2 | D2 C2 x8 |] %8
V:3
 [F,A,]2 [F,A,]2 [F,B,]2 [F,C]4 [A,,F,]2 | B,2 A,2 [C,G,]2 [F,A,]4 [F,A,]2 | %2
 [F,A,]2 [F,A,]2 [F,A,]2 (B,2 A,2) [D,F,][D,F,] | G,2 G,2 [C,G,]2 [F,A,]4 [F,C][F,C] | %4
 [F,C]4 [E,C]2 [D,B,]4 [C,C]2 | [B,D]4 [D,D]2 [A,^C]6 | [C,C]2 [C,C]2 [F,D]2 C2 B,2 [D,A,]2 | %7
 B,2 A,2 [C,G,]2 [F,A,]6 |] %8
V:4
 x12 | B,,4 x8 | x6 B,,4 x2 | C,4 x8 | x12 | x12 | x6 C,4 x2 | B,,4 x8 |] %8

